!!!COM: Chopin, Fryderyk
!!!OTL: Mazurka No. 3
!!!OPS:Op. 59
!!!OPR:3 Mazurkas pour piano
!!!OCL: Brandus
!!!NIFC-rismID: 1001007671
!!!OMD: Vivace
**kern	**kern	**dynam
*staff2	*staff1	*staff1/2
*clefF4	*clefG2	*clefG2
*k[f#c#g#]	*k[f#c#g#]	*k[f#c#g#]
*f#:	*f#:	*f#:
*M3/4	*M3/4	*M3/4
*MM180	*MM180	*MM180
4r	(4c#/	f<
=1	=1	=1
*ped	*	*
4FFF#/	4.f#/	.
4C#\ 4A\ 4c#\	.	.
.	8g#/L	.
*Xped	*	*
4C#\ 4A\ 4c#\	8a/	.
.	8b#/J	[
=2	=2	=2
*ped	*	*
4FF#/	12dd\L	.
.	12ee\	.
.	12dd\J	.
4A\ 4c#\ 4f#\	4cc#\)	.
*Xped	*	*
4A\ 4c#\ 4f#\	(4ff#\	.
=3	=3	=3
*ped	*	*
4F#\	12cc#\L	.
.	12dd\	.
.	12cc#\J	.
4B\ 4d\ 4f#\	4b\)	.
*Xped	*	*
4B\ 4d\ 4f#\	(4ff#\	.
=4	=4	=4
*ped	*	*
4FF#/	12b\L	.
.	12cc#\	.
.	12b\J	.
4A\ 4c#\ 4f#\	4a\)	.
*Xped	*	*
4C#\ 4A\ 4c#\	(4cc#\	.
!!linebreak:original
=5	=5	=5
*ped	*	*
4CC#/	12a\L	.
.	12b\	.
.	12a\J	.
4C#\ 4E#\ 4B\	4g#\)	.
*Xped	*	*
4C#\ 4E#\ 4B\	(4cc#\	.
=6	=6	=6
*ped	*	*
4FF#/	12g#\L	.
.	12a\	.
.	12g#\J	.
4C#\ 4F#\ 4A\	4f#\)	.
*Xped	*	*
4D#\ 4F# 4A\	(4cc#\	.
=7	=7	=7
*ped	*	*
4GG#/	12f#\L	.
.	12g#\	.
.	12f#\J	.
4E\ 4G#\ 4c#\	4e/)	>
*Xped	*	*
4F#\ 4G#\ 4B#\	(>8d#/L	]
.	(8g#/J	.
=8	=8	=8
*	*^	*
*ped	*	*	*
.	.	8qg#	.
4CC#/	4ryy	)&[4c#^/&)	.
4C#\ 4E#\ 4B\	8ryy	8c#\L]	<
.	()8b/L	8d\	.
*Xped	*	*	*
4C#\ 4G#\ 4B\	8a/	8c#\	.
.	8g#/J	8e#\J	.
=9	=9	=9	=9
*ped	*	*	*
4FF#/	4f#/)	4ryy	.
4C#\ 4A\ 4c#\	(8g#/L	4ryy	.
.	8f#/	.	.
*Xped	*	*	*
4C#\ 4A\ 4c#\	8a/	4ryy	.
.	8b#/J	.	[
*	*v	*v	*
!!linebreak:original
=10	=10	=10
*ped	*	*
4FF#/	12dd\L	.
.	12ee\	.
.	12dd\J	.
4F#\ 4A#\ 4e\	4cc#\)	.
*Xped	*	*
4F#\ 4A#\ 4e\	(4ff#\	.
=11	=11	=11
*ped	*	*
4BB/	12cc#\L	.
.	12dd\	.
.	12cc#\J	.
4F#\ 4B 4e\	4b\)	.
*Xped	*	*
4F#\ 4d\	(4ff#\	.
=12	=12	=12
*ped	*	*
4FF#/	12b\L	.
.	12cc#\	.
.	12b\J	.
4F#\ 4c#\	4a/)	.
*Xped	*	*
4D#\ 4A\ 4c#\	(4cc#\	.
=13	=13	=13
*^	*	*
4r	2.E\	12f#\L	.
.	.	12g#\	.
.	.	12f#\J	.
4A/ 4c#/	.	4e\)	.
4A/ 4c#/	.	(4cc#\	.
*v	*v	*	*
=14	=14	=14
*ped	*	*
!	!LO:TX:t=cres.	!
4EE/	12e\L	.
.	12f#\	.
.	12e\J	.
4F#\ 4A\	4d#\)	.
*Xped	*	*
4F#\ 4A\	(4cc#\	.
!!linebreak:original
=15	=15	=15
*ped	*	*
4EE/	8dn\L	.
.	8b\	.
4r	8cc#\	.
.	8dd\	.
4E\ 4G#\ 4d\	8cc#\	.
*Xped	*	*
.	8b\J	.
=16	=16	=16
*ped	*	*
4AA/	8cc#\L	.
.	)8b\J	.
4E\ 4A\ 4c#\	4a\(	p<
4EE/	8cc#\L	.
*Xped	*	*
.	8dd\J	.
=17	=17	=17
*ped	*	*
4AAA/	2ee\	[
4Gn\ 4A\ 4e\	.	.
4Gn\ 4A\ 4e\	8ff#\L	>
*Xped	*	*
.	8ee\J	.
=18	=18	=18
4F#\ 4A\ 4d#\	4dd#\)	]
4F#\ 4A\ 4d#\	(8b\L	<
.	8cc#\J	.
4Fn\ 4A\ 4dn\	4ddn\	[
=19	=19	=19
*ped	*	*
4AA/	8d\L	.
.	8b\	.
4E\ 4G#\ 4d\	8cc#\	.
.	8dd\	.
*Xped	*	*
4E\ 4G#\ 4d\	8cc#\	.
.	8b\J	.
!!pagebreak:original
=20	=20	=20
*ped	*	*
4AA/	8cc#\L	.
.	8b\J	.
4E\ 4A\ 4c#\	4a\)	.
4EE/	(8cc#\L	.
*Xped	*	*
.	8dd\J	.
=21	=21	=21
*ped	*	*
4AAA/	2ee\	>
4Gn\ 4A\ 4e\	.	.
4G\ 4A#\ 4e\	16ff#\LL	.
*Xped	*	*
.	16ee\	.
.	16ff#\	.
.	16ee\JJ	.
=22	=22	=22
*	*^	*
4F#\ 4B\ 4d#\	4ryy	4dd#\)	.
4F#\ 4B\	(8b/L	4a\	]
.	8cc#/J	.	.
4Fn\ 4B\ 4dn^\	4ryy	4a\ 4ddn\)	.
=23	=23	=23	=23
4AA/	(>8d/L	4ryy	.
.	8b/	.	.
4E\ 4B\ 4d\	8cc#/	4g#\	.
.	8dd/	.	.
4E\ 4G#\ 4d\	8cc#/	4e\	.
.	8b/J	.	.
*	*v	*v	*
=24	=24	=24
4AA/	8cc#/L	.
.	8b/J	.
4E\ 4A 4c#\	4a/)	.
4C#^\ 4E#^\ 4B^\	(>8g#/L	.
.	8a/J	.
!!linebreak:original
=25	=25	=25
*ped	*	*
4FF#/	4.f#/)	.
4C#\ 4F#\ 4A\ 4c#\	.	.
.	(8g#/L	.
4C#\ 4F#\ 4A\ 4c#\	8a/	.
*Xped	*	*
.	8b#/J	.
=26	=26	=26
*ped	*	*
4FF#/	12dd\L	.
.	12ee\	.
.	12dd\J	.
4A\ 4c#\ 4f#\	4cc#\)	.
*Xped	*	*
4A\ 4c#\ 4f#\	(4ff#\	.
=27	=27	=27
*ped	*	*
(4BB/	12cc#\L	.
.	12dd\	.
.	12cc#\J	.
4F#\ 4e\	4ccn\)	.
*Xped	*	*
4F#\ &4d\&))	4b\ (4ff#\	.
=28	=28	=28
*	*^	*
*ped	*	*	*
4FF#/	4ryy	12b\L	.
.	.	12cc#X\	.
.	.	12b\J	.
4F#\ 4c#\	4a#\)	4ryy	.
*Xped	*	*	*
4F#\ 4c#\	(4cc#\ 4a\	4	.
*	*v	*v	*
=29	=29	=29
*ped	*	*
(4C#/	12a\L	.
.	12b\	.
.	12a\J	.
4E#\ 4c#\	4g#\)	.
4E#\ 4B\)	(>4c#\ 4cc#\	.
!!linebreak:original
=30	=30	=30
*ped	*	*
4FF#/	12g#\L	.
.	12a\	.
.	12g#\J	.
4A\	4gn/)	.
*Xped	*	*
4D#\ 4A\ 4c#\	4f#/ (>4cc#/	<
=31	=31	=31
*	*^	*
*ped	*	*	*
4GG#/	12f#/L	4ryy	.
.	12g#X/	.	.
.	12f#/J	.	.
4G#\	8ryy	8fn\L	.
.	4g#^/	8e\	.
*Xped	*	*	*
4F#\ 4G#\ 4B#\	.	8d#\	.
.	8/	[<8g#\J	.
=32	=32	=32	=32
*ped	*	*	*
4CC#/	]4.g#^/)	8c#\L	.
.	.	8dnM\	.
4C#\ 4E#\ 4B\	.	8c#\	.
.	(8b/L	8d\	.
*Xped	*	*	*
4C#\ 4G#\ 4B\	8a/	8c#\	.
.	8g#/J	8e#\J	[
=33	=33	=33	=33
*ped	*	*	*
4FF#/	4f#/)	4	f
4C#\ 4A\ 4c#\	(8g#/L	4ryy	.
.	8f#/	.	.
4C#\ 4A\ 4c#\	8a/	4ryy	.
*Xped	*	*	*
.	8b#/J	.	.
*	*v	*v	*
=34	=34	=34
*ped	*	*
4FF#/	12dd\L	.
.	12ee\	.
.	12dd\J	.
4F#\ 4A#\ 4e\	4cc#\)	.
*Xped	*	*
4F#^\ 4A#^\ 4e^\	4f#\ (4ff#\	.
!!linebreak:original
=35	=35	=35
*ped	*	*
4BB/	12cc#\L	.
.	12dd\	.
.	12cc#\J	.
4F#\ 4e\	4ccn\)	.
4F#^\ 4d^\	4b\ (4ff#\	.
=36	=36	=36
4FF#/	12b\L	.
.	12cc#X\	.
.	12b\J	.
4F#\ 4c#\	4a#\)	.
4F#\ 4c#^\	4an\ 4cc#\	.
=37	=37	=37
*^	*	*
!	!	!LO:TX:t=dim.	!
4r	2.D\	(>4.f#/	>
4F#/ (4c#/	.	.	.
.	.	8g#/L	.
4F#/ )&4B/&)	.	8a/	.
.	.	8b/J	.
=38	=38	=38	=38
4r	2.C#\	12a\L	.
.	.	12b\	.
.	.	12a\J	.
4F#/ [4B/	.	4g#\	.
4E#/ 4B/]	.	)4cc#\	.
=39	=39	=39	=39
4r	2.D\	(>4.f#/	p
4F#/ (4c#/	.	.	.
.	.	8g#/L	.
4F#/ )&4B/&)	.	8a/	.
.	.	8qcc	.
.	.	8b/J	.
!!linebreak:original
=40	=40	=40	=40
4r	2.C#\	12a\L	.
.	.	12b\	.
.	.	12a\J	.
4F#/ [4B/	.	4g#\	.
!	!	!LO:TX:t=ri_ _	!
4E#/ 4B/]	.	)4cc#\	<
=41	=41	=41	=41
!	!	!LO:TX:t=te_ _	!
4r	2.D\	(4.f#/	.
4F#/ (4c#/	.	.	.
.	.	8g#/L	.
!	!	!LO:TX:t=nu_ _	!
4F#/ )&4B/&)	.	8a/	.
.	.	8b/J	.
*v	*v	*	*
=42	=42	=42
!	!LO:TX:t=to	!
4BBB/	8cc#\L	.
.	8ee\J	[
4G#\ 4B\ 4d\ 4f#\	4.dd\	.
4r	.	.
.	8f#/)	.
=43	=43	=43
*	*^	*
4r	(>8f#/L	4	.
.	8e#/J	.	.
4CC#'/	4.a/	4	.
[<4C#/	.	4B\ 4e#\	.
.	8g#/	.	.
=44	=44	=44	=44
4C#\] 4B\ 4e#\	8a#/L	4ryy	<
.	8b/	.	.
4r	8b#/	8ryy	.
.	8cc#/	4ryy	.
4r	8ee#/	.	.
.	8dd# 8bnJ	8ryy	[
*	*v	*v	*
=||	=||	=||
!!pagebreak:original
=45	=45	=45
*k[f#c#g#d#a#e#]	*k[f#c#g#d#a#e#]	*k[f#c#g#d#a#e#]
!	!LO:TX:t=in Tempo	!
(4FF#/	[4a#/ [4cc#/	>
4C#/	8a#/] 8cc#/L]	.
.	8g##/ 8b#/	.
4D#/	)8c#/	.
.	16r	.
.	[16g#/Jk	.
=46	=46	=46
4E#\	8g#/] 8b/L	.
.	8f#/ 8a#/	.
4F#\	8c#/	]
.	16r	.
.	16f#/ 16a#/Jk	.
4c#\)	4en/ 4a#/^	.
=47	=47	=47
4r	[4d#/ [4f#/	<
*ped	*	*
4BB/	8d#/] 8f#/L]	.
.	8b/ 8dd#/	.
4F#\ 4B\ 4d#\	8f#/	.
.	16r	.
*Xped	*	*
.	[16cc#/Jk	.
=48	=48	=48
*ped	*	*
4BBB/	8cc#/] 8ee#/L	.
.	8f#/	[
4F#\ 4d#\	12dd#/ 12ff#/L	.
.	12gg#/	.
.	12ff#J	.
*Xped	*	*
4F#\ 4f#\	8cc#/ 8ee#/	.
.	8b/ 8dd#/J	.
=49	=49	=49
!!pagebreak:original
(<4FF#/	[4a#/ [4cc#/	>
4C#/	8a#/] 8cc#/L]	.
.	8g##/ 8b#/	.
4D#/	8c#/	.
.	16r	.
.	[16g#/Jk	.
=50	=50	=50
4E#\	8g#/] 8b/L	.
.	8f#/ 8a#/	.
4F#\	8c#/	]
.	16r	.
.	(>16f#/ 16a#/Jk	.
4c#\)	4d#^/ 4an^/	.
=51	=51	=51
4r	[4B#/ [>4f#/ [4g#/	.
*ped	*	*
(4GG#'/	8B#/] 8f#/] 8g#/L]	<
.	(>8b#/)	.
*Xped	*	*
4G#\ 4A#\	8f#/ &8g#/&)	.
.	16r	.
.	16cc#/Jk	.
=52	=52	=52
4G#\ 4Bn\	8cc##/L	.
.	8dd#/	.
4G#\ 4B#\	8f#/ 8g#/	.
.	8ff#/	[
4C#\ 4G#\ 4c#\)	8e#/ 8ee#/^)	.
.	16r	.
.	(>16a#/Jk	.
=53	=53	=53
*	*^	*
*ped	*	*	*
(>4GG#'/	[>4a#/	4r	.
4G#\ 4d#\	12a#/L]	4f#\	.
.	12b#/	.	.
.	12a#/J)	.	.
*Xped	*	*	*
4G#\ 4A#\	(>8f#/ 8g#/L	4ryy	.
.	16r	.	.
.	16cc#/Jk	.	.
=54	=54	=54	=54
4G#\ 4Bn\	8cc##/L	4ryy	.
.	8dd#/	.	.
4G#\ 4B#\	8g#/	4f#\	.
.	8ff#/	.	.
4C#\ 4G#\ &4c#\&^))	8e#/ 8ee#/)	4ryy	.
.	16r	.	.
.	(>16b/ 16dd#/Jk	.	.
*	*v	*v	*
!!linebreak:original
=55	=55	=55
(4FF#/	[4b/ [4dd#/	>
4C#/	8b/] 8dd#/L]	.
.	8a#/ 8cc#/	]
4D#/	8c#/	.
.	16r	.
.	[16g##/Jk	.
=56	=56	=56
4E#\	8g##X/] 8b#/L	.
.	8g#/ 8bn/	.
4F#\	8c#/)	.
.	16r	.
.	(>16f#/ 16a#/Jk	.
4c#^\)	4en^/ 4a#^/	.
=57	=57	=57
4r	[4d#/ [4f#/)	<
*ped	*	*
4BB/	(>8f#/L]	.
.	8b/ 8dd#/	.
4F#\ 4d#\	8f#/	.
.	16r	.
*Xped	*	*
.	[16cc#/Jk	[
=58	=58	=58
*ped	*	*
4BBB/	8cc#/] 8ee#/L	>
.	8f#/	.
4F#\ 4d#\	12dd#/ 12ff#/L	.
.	12gg#/	.
.	12ff#J	.
*Xped	*	*
4F#\ 4f#\	8cc#/ 8ee#/	.
.	8b/ 8dd#/J	]
=59	=59	=59
(>4FF#/	[4a#/ [4cc#/	>
4C#/	8a#/] 8cc#/L]	.
.	8g##/ 8b#/	.
4D#/	8c#/)	.
.	16r	.
.	(>[16g#/Jk	]
!!linebreak:original
=60	=60	=60
4E#\	8g#/] 8b/L	.
.	8f#/ 8a#/	.
4F#\	8c#/)	.
.	16r	.
.	(>16f#/ 16a#/Jk	.
4c#\)	4d#^/ 4an/	.
=61	=61	=61
4r	[4B#/ [>4f#/ [4g#/	.
*ped	*	*
4GG#/	8B#/] 8f#/] &8g#/L]&)	<
.	16r	.
.	16b#/k)	.
4G#\ 4A#\	(>8f#/ 8g#/	.
.	16r	.
*Xped	*	*
.	16cc#/Jk	.
=62	=62	=62
*	*^	*
4G#\ 4Bn\	8cc##/L	4ryy	[
.	8dd#/	.	.
4G#\ 4B#\	8g#/	4f#\	.
.	8ff#/	.	.
4C#\ 4G#\ 4c#^\	8e#/ 8ee#/)	4ryy	.
.	16r	.	.
.	(>16a#/Jk	.	.
=63	=63	=63	=63
*ped	*	*	*
4GG#/	[4a#/	4r	.
4G#\ 4d#\	12a#/L]	4f#\	<
.	12b#/	.	.
.	12a#/J	.	.
4G#\ 4A#\	8f#/ 8g#/L)	4ryy	.
.	16r	.	.
*Xped	*	*	*
.	(>16cc#/Jk	.	.
=64	=64	=64	=64
4G#\ 4Bn\	8cc##/L	4ryy	.
.	8dd#/	.	[
4G#\ 4B#\	8g#/	4f#\	.
.	8ff#/J	.	.
8C#\ 8G#\ 8c#\L	8e#/ 8ee#^/)	4ryy	.
8BBn\J	8r	.	.
!!linebreak:original
=65	=65	=65	=65
*ped	*	*	*
4AA#/)	(4.gg#/	4r	>
4A#\	.	4g#\ 4cc##\	.
.	8ff##/L	.	.
4D#\ 4A#\ 4d#\	8dd#/	4f##\ 4cc#\	.
*Xped	*	*	*
.	8ee#/J	.	.
=66	=66	=66	=66
*ped	*	*	*
4GG#/	12ff#/L	4r	.
.	12gg#/	.	.
.	12ff#/J	.	.
4G#\	8ee#/L	4f#\ 4b#\	.
.	8dd#/	.	.
4C#\ 4G#\ 4c#\	8ee#/	4e#\ 4bn\	.
*Xped	*	*	*
.	8cc#/J	.	.
=67	=67	=67	=67
*ped	*	*	*
4FF#/	4.een/	4r	.
4F#\	.	4e#\ 4a#X\	.
.	8dd#/L	.	.
4BB\ 4F#\ 4B\	8bn/	4d#\ 4a#\	.
*Xped	*	*	*
.	8cc#/J	.	.
=68	=68	=68	=68
*ped	*	*	*
4EEn/	12ddn/L	4r	]
.	12een/	.	.
.	12dd/J	.	.
4En\	8cc#/L	4dn\ 4g#\	.
.	8b#/J	.	.
*Xped	*	*	*
4AAn\ 4E\ 4An\	)&4cc#/&)	4c#^\ 4an^\	.
=69	=69	=69	=69
*ped	*	*	*
4DD#/	(4.cc#/	4r	>
4D#\	.	4c#\ 4f##\	.
.	8b#/L	.	.
4GG#/ 4D#/ 4G#/	8g#/	4B#\ 4f#\	.
*Xped	*	*	*
.	8a#/J	.	.
!!pagebreak:original
=70	=70	=70	=70
*ped	*	*	*
4CC#/	12bn/L	4r	.
.	12cc#/	.	.
.	12b/J	.	]
4C#/	8a#/L	4Bn\ 4e#\	.
.	8g#/	.	.
4FF#/ 4C#/ 4F#/	8a#/	4A#^\	.
*Xped	*	*	*
.	8f#/J	.	.
=71	=71	=71	=71
*ped	*	*	*
4BB/ 4F#/	4d#/)	4B\	sf
4BB/ 4F#/	(8f#/L	4d#\	p
.	8g#/	.	.
4FF#/ 4F#/	8a#/	4d#\	.
*Xped	*	*	*
.	8b/J	.	.
=72	=72	=72	=72
4BB/ 4F#/	12d#/L	4d#\	.
.	12cc#/	.	.
.	12b/J	.	.
4C#/ 4F#/	8a#/L	4c#\	.
.	8g#/	.	.
4FF#/ 4F#/	8a#/	4c#\	.
.	8f#/J	.	.
=73	=73	=73	=73
4BB/ 4F#/	8d#/L	4d#\	.
.	8e#/	.	.
4BB/ 4F#/	8f#/	4d#\	.
.	8g#/	.	.
4FF#/ 4F#/	8a#/	4d#\	.
.	8b/J	.	.
=74	=74	=74	=74
4BB/ 4F#/	12d#/L	4d#\	.
.	12cc#/	.	.
.	12b/J	.	.
4BB/ 4E#/	8a#/L	4d#\	.
.	8g#/J	.	.
4AA#/ 4E#/	4a#/)	4c##^\	.
=75	=75	=75	=75
*ped	*	*	*
4AAA#/	(4.gg#/	4r	>
4A#\	.	4g#\ 4cc##\	>
.	8ff##/L	.	.
*Xped	*	*	*
4D#\ 4A#\ 4d#\	8dd#/	4f##\ 4cc#\	.
.	8ee#/J	.	.
!!linebreak:original
=76	=76	=76	=76
4AA#\ 4A#\	12ff#/L	4f#X\ 4cc#\	.
.	12gg#/	.	.
.	12ff#/J	.	.
4GG#\ 4G#\	8ee#/L	4f#\ 4b#\	.
.	8dd#/	.	.
4C#\ 4G#\ 4c#\	8ee#/	4e#\ 4bn\	.
.	8cc#/J	.	.
=77	=77	=77	=77
4GG#\ 4G#\	4.een/	4e#\ 4b\	.
4FF#\ 4F#\	.	4e#\ 4a#\	.
.	8dd#/L	.	.
4BB\ 4F#\ 4B\	8b/	4d#\ 4an\	.
.	8cc#/J	.	.
=78	=78	=78	=78
4FF#\ 4F#\	12ddn/L	4dn\ 4an\	.
.	12een/	.	.
.	12dd/J	.	.
4EEn\ 4En\	8cc#/L	4dn\ 4g#\	]
.	8b#/J	.	.
4AAn\ 4E\ 4An\	4cc#/	4c#^\ 4a^\	.
=79	=79	=79	=79
4EE#X\ 4E#X\	4.cc#/	4c#\ 4g#\	>
4DD#\ 4D#\	.	4c#\ 4f##\	.
.	8b#/L	.	.
4GG#\ 4D#\ 4G#\	8g#/	4B#\ 4f#\	.
.	8a#X/J	.	.
=80	=80	=80	=80
4DD#\ 4D#\	12bn/L	4f#\	.
.	12cc#/	.	.
.	12b/J	.	.
4CC#\ 4C#\	8a#/L	4Bn\ 4e#\	.
.	8g#/	.	.
4FF#^\ 4C#^\ 4F#^\	8a#/	4A#\	.
.	8f#/J	.	.
!!linebreak:original
=81	=81	=81	=81
4BB\ 4F#\	4d#/)	4B\	sf
4BB\ 4F#\	(8f#/L	4d#\	p
.	8g#/	.	.
4FF#\ 4F#\	8a#/	4d#\	.
.	8b/J	.	.
=82	=82	=82	=82
4BB\ 4F#\	12d#/L	4d#\	.
.	12cc#/	.	.
.	12b/J	.	.
4C#\ 4F#\	8a#/L	4c#\	.
.	8g#/	.	.
4FF#\ 4F#\	8a#/	4c#\	.
.	8f#/J	.	.
=83	=83	=83	=83
4BB\ 4F#\	8d#/L	4d#\	.
.	8e#/	.	.
4BB\ 4F#\	8f#/	4d#\	.
.	8g#/	.	.
4FF#\ 4F#\	8a#/	4d#\	.
.	8b/J	.	.
=84	=84	=84	=84
4FF#\ 4F#\	12d#/L	4d#\	<
.	12cc#/	.	.
.	12b/J	.	.
4BB\ 4F#\	8a#/L	4d#\	.
.	8g#/	.	.
4FF#\ 4F#\	8a#/	4c#\	.
.	8f#/J	.	.
=85	=85	=85	=85
4BB\ 4F#\	8a#/L	4d#\	.
.	8g#/	.	.
4FF#\ 4F#\	8a#/	4c#\	.
.	8f#/	.	.
4BB\ 4F#\	8a#/	4d#\	.
.	8g#/J	.	.
=86	=86	=86	=86
4FF#\ 4F#\	8a#/L	4c#\	.
.	8f#/	.	.
4BB\ 4F#\	8a#/	4d#\	.
.	8g#/	.	.
4FF#\ 4F#\	8a#/	4c#\	.
.	8f#/J	.	[
!!linebreak:original
=87	=87	=87	=87
4BB\ 4F#\	8an/L	4d#\	>
.	8g#/	.	.
4FF#\ 4F#\	8a/	4c#\	.
.	8f#/	.	.
4BB\ 4F#\	8a/	4d#\	.
.	8g#/J	.	.
=88	=88	=88	=88
4FF#\ 4F#\	8an/L	4c#\	.
.	8f#/	.	.
4BB\ 4F#\	8a/	4d#\	.
.	8g#/	.	.
4FF#\ 4F#\	8a/	4c#\	.
.	8f#/J	.	]
*	*v	*v	*
=89	=89	=89
*ped	*	*
(>4.BBB/	)[2.d#/ (>[2.an/	>
8FF#/L	.	.
8BB/	.	.
*Xped	*	*
8G#/J	.	.
=90	=90	=90
12F#\L	2.d#/] 2.anX/]	]
12G#\	.	.
12F#\J	.	.
&4BB\&')	.	.
4B'\)	.	.
=91	=91	=91
*ped	*	*
(>4.EEn/	[2.dn/ 2.an/	.
8BB\L	.	.
8En\	.	.
*Xped	*	*
8c#\J	.	.
=92	=92	=92
12B\L	2.dnX/] 2.g#/	.
12c#\	.	.
12B\J	.	.
&4En\&')	.	.
)4en'\	.	.
!!linebreak:original
=93	=93	=93
*ped	*	*
(4.AAAn/	2.dn/ [2.gn/	.
8EEn/L	.	.
8AAn/	.	.
*Xped	*	*
8F#/J	.	.
=94	=94	=94
12En\L	2.c#/ 2.gnX/]	.
12F#\	.	.
12E\J	.	.
&4AAn\&)	.	.
)4An'\	.	.
=95	=95	=95
*ped	*	*
(>4.DDn/	2.cn/ 2.gn/	>
8AAn\L	.	.
8Dn\	.	.
*Xped	*	*
8B\J	.	.
=96	=96	=96
*^	*	*
4ryy	12AnL	[2.f# 2.c]	.
.	12B	.	.
.	[12AJ	.	.
]2A_]	4Dn'	.	.
.	)4dn'	.	.
*v	*v	*	*
=||	=||	=||
=97	=97	=97
*k[f#c#g#]	*k[f#c#g#]	*k[f#c#g#]
&4C#\& 4A	4.c#X/ (>4.f#/])	<
4r	.	.
.	8g#/L	.
4r	8a/	.
.	8b#/J	.
=98	=98	=98
2.r	12dd\L	.
.	12ee\	.
.	12dd\J	.
.	4cc#\	.
.	4ff#\	[
!!pagebreak:original
=99	=99	=99
!	!LO:TX:t=cres_ _ _	!
(>4.C#/	12cc#\L	<
.	12dd\	.
.	12cc#\J	.
.	4b#\	.
8G#\L	.	.
8A\	4bn\	.
8B#\J	.	.
=100	=100	=100
12d\L	12b\L	.
12e\	12cc#\	.
12d\J	12b\J	.
4c#\	4a#\	[
4f#\	4an\ 4cc#\	.
=101	=101	=101
12c#\L	12a\L	.
12d\	12b\	.
12c#\J	12a\J	.
4B#\	4g#\	.
4Bn\	4c#^/ 4cc#^/	.
=102	=102	=102
12B\L	12g#\L	.
12c#\	12a\	.
12B\J	12g#\J	.
4A#\	4f##\	.
4An\ 4c#\	4f#\ 4cc#^\	.
=103	=103	=103
*^	*^	*
2G#)	4r	4.ryy	12f#L\	.
.	.	.	12g#	.
.	.	.	12f#J	.
*ped	*	*	*	*
.	4GG#/	.	8e#L	.
.	.	4g#^	8enJ	.
4ryy	4F# 4B#	.	4d	.
*Xped	*	*	*	*
.	.	[8g#^	.	.
*v	*v	*	*	*
!!linebreak:original
=104	=104	=104	=104
*ped	*	*	*
4CC#/	4.g#/]	8c#\L	.
.	.	8dM\	.
4C#\ 4E#\ 4B\	.	8c#\	.
.	8b/L	8d\	.
*Xped	*	*	*
4C#\ 4G#\ 4B\	8a/	8c#\	.
.	8g#/J	8e#\J	.
*	*v	*v	*
=105	=105	=105
*ped	*	*
4FFF# 4FF#/	4f#/	f
4C#\ 4A\ 4c#\	8g#/L	.
.	8f#/	.
*Xped	*	*
4C#\ 4A\ 4c#\	8a/	.
.	8b/J	.
=106	=106	=106
*ped	*	*
4FF#/	12dd\L	.
.	12ee\	.
.	12dd\J	.
4F#\ 4A#\ 4e\	4cc#)	.
*Xped	*	*
4F#\ 4A#\ 4e\	(4ff#^\	.
=107	=107	=107
*ped	*	*
4BB/	12cc#\L	.
.	12dd\	.
.	12cc#\J	.
4F#\ 4e\	4ccn\)	.
*Xped	*	*
4F#\ 4d\	4b\ (4ff#^\	.
=108	=108	=108
*ped	*	*
4FF#/	12b\L	.
.	12cc#X\	.
.	12b\J	.
4F#\ 4d\	(>4a#\)	.
*Xped	*	*
4F#\ 4c#\	4an^\ 4cc#^\	.
!!linebreak:original
=109	=109	=109
*^	*	*
!	!	!LO:TX:t=dim_ _ _ _ 	!
4r	2.D\	4.f#/	>
(4F#/ 4c#/	.	.	.
.	.	8g#/L	.
4F#/ )&4B/&)	.	8a/	.
.	.	8b/J	.
=110	=110	=110	=110
4r	2.C#\	12a/L	.
.	.	12b/	.
.	.	12a/J	.
4F#/ [4B/	.	4g#/)	.
4E#/ 4B/]	.	(4cc#\	.
=111	=111	=111	=111
4r	2.D\	4.f#/	p
(4F#/ 4c#/	.	.	.
.	.	8g#/L	.
4F#/ )&4B/&)	.	8a/	.
.	.	8qcc#	.
.	.	8b/J	.
=112	=112	=112	=112
4r	2.C#\	12a/L	.
.	.	12b/	.
.	.	12a/J	.
(4F#/ 4B	.	4g#/)	.
4E#/ )&4B/&)	.	(>4cc#/	.
=113	=113	=113	=113
!	!	!LO:TX:a:t=ritenuto.	!
4r	2.D\	4.f#/	.
(4F#/ 4c#/	.	.	.
.	.	8g#/L	<
4F#/ )&4B/&)	.	8a/	.
.	.	8b/J	.
*v	*v	*	*
=114	=114	=114
*ped	*	*
4GG#/	8cc#\L	.
.	8ee\J	.
4G#\ 4B\ 4f#\	4.dd\	[
4r	.	.
*Xped	*	*
.	8f#/)	.
!!linebreak:original
=115	=115	=115
*	*^	*
!	!LO:TX:a:t=in Tempo.	!	!
4r	(8f#/L	4r	<
.	8e#/J	.	.
(<4C#/	4.a/	4B\	.
!	!	!LO:TX:t=cres.	!
&4C##/&)	.	4B\ 4e#\	.
.	8g#/	.	.
=116	=116	=116	=116
4r	8g#/L	4r	.
.	8f#/J	.	.
4D\	4.b/	4cn\	.
4D#\	.	4c\ 4f#\	.
.	8a/)	.	.
=117	=117	=117	=117
4E\	(8f##/L	4B#\	.
.	8g#/	.	.
4EE/	8a/	4c#\	.
.	8g#/	.	.
4EE#/	8cc#/	4d\ 4g#\	.
.	8bn/J	.	.
=118	=118	=118	=118
[4FF#/	8d/ 8f#/ 8b/L	4ryy	.
.	8c#/ 8a#/J	.	.
4FF#/] 4F#/	4.dd/	4e\ 4a#\	.
4FF##/ 4F##/	.	4e\ 4an\	.
.	8cc#/	.	[
=119	=119	=119	=119
*ped	*	*	*
)4GG#/) 4G#/	8.e/ 8.g#/ 8.cc#/L	4ryy	f>
.	16d#/ 16g#/ 16b#/Jk	.	.
4G#\ 4d#\ 4f#\	4.gg#/	4g#\ 4b#\	.
4G#\ 4d#\ 4f#\	.	4g#\ 4b#\	.
*Xped	*	*	*
.	8ff#/	.	.
!!linebreak:original
=120	=120	=120	=120
*ped	*	*	*
4CC#/ 4C#/	4.ff#/	4r	.
4G#\ 4c#\ 4g#\	.	4e#\ 4bny\	.
.	8ee#/L	.	.
4G#\ 4c#\ 4g#\	8b/	4e#\	]
*Xped	*	*	*
.	8cc#/J	.	.
=121	=121	=121	=121
*^	*	*	*
4ryy	4r	8ee/L	4r	.
.	.	8dd#/J	.	.
!	!	!	!LO:TX:t=dim _ _ _	!
4ryy	(>4C#\ 4B\	12ddn/L	4e#\	.
.	.	12ee/	.	.
.	.	12dd/J	.	.
8A/L	4C#\	8cc#/L	4e#\	.
8G#/J	.	8b/J	.	.
*v	*v	*	*	*
*	*v	*v	*
=122	=122	=122
.	8qc	.
*ped	*	*
8FF#/L	8a/ 8cc#/L	<
8C#/J	8g#/ 8b/J	.
4c#\	4f#/ 4a/)	.
8.A\L	4r	[
*Xped	*	*
16F#\Jk	.	.
=123	=123	=123
*	*^	*
!	!LO:TX:t=cres.	!	!
8F#\L	4ryy	4r	.
8E#\J	.	.	.
4.A\	8ryy	8r	.
.	8c#/L	4c#\	.
.	8f#/	.	.
8G#\	8e#/ 8g#/J	8ryy	.
=124	=124	=124	=124
8G#\L	8e#/ 8b/L	4c#\	.
8F#\J	8f#/ 8a/J)	.	.
4.B\	8r	8ryy	.
.	(>8d/L	4.ryy	.
.	8g#/	.	.
8A\)	8f#/ 8a/J	.	.
!!pagrbreak:original
=125	=125	=125	=125
(8F##\L	8cc#/L	4d\ 4e#\	.
8G#\	8b/J)	.	.
8A\	8r	8ryy	.
8G#\	(8e#X/L	4.e#X\	.
8c#\	8a/	.	.
8B\J	8g#/ 8b/J	.	.
=126	=126	=126	=126
8BL	8ddL	2.gn 2.en	.
8A#XJ	8cc#)J	.	.
4.d	8r	.	.
.	16r	.	.
.	(16bKL	.	.
.	8b	.	.
8c#)	8a#XJ	.	<
=127	=127	=127	=127
(8c#L	8anL	4f# 4d#X	.
8B#XJ	8g#XXJ)	.	.
4.g#	4r	2ryy	f
.	4r	.	.
8f#	.	.	[
*	*v	*v	*
=128	=128	=128
8.f#L)	8r	.
.	16r	.
16e#XJk	(>16g#	.
(>4.e#	4.gg#/ 4.g#/	.
8d#X	8ff#/ 8b#X/ 8g#/	.
=129	=129	=129
8.d#XL	8.ff#/L 8.b#X/ 8.g#/	.
16c#Jk	16ee#XJk 16cc# 16g#	.
4.c#	4.ee# 4.g# 4.e#X	>
8B	8dd 8g# 8e#	]
=130	=130	=130
8AL	8ddL 8a 8fn	.
.	8qee/	.
8G#J	8ddJ 8b 8en	.
4A	4cc# 4a 4e	.
4D#X	4cc# [>4a [4f#X	>
!!linebreak:original
=131	=131	=131
8D#XL]	8bL 8a] 8f#]	]
.	8qcc#/	.
8E#XJ	8bJ 8g# 8c#	.
4F#	4a 4c#	.
4B [4BB	4gn^ [4d	.
=132	=132	=132
*^	*^	*
2Gn	]8BBL	2gn	8dL]	.
.	.	.	8qf#/	.
.	8CnJ	.	8eJ	.
!	!	!	!LO:TX:t=dim.	!
.	4E	.	4cn	.
4ryy	4D	4ryy	4B\	.
=133	=133	=133	=133	=133
8G#XL	4D]	4f#	8BL	.
8AJ	.	.	8B#XJ	.
[2C#XX	4ryy	4a [4f# 4c#	4ryy	.
.	4CC#	4g# 4B#	8f#L]	.
.	.	.	8e#XJ	.
*v	*v	*	*	*
=134	=134	=134	=134
4C#] 4FF#)	4ryy	)4f# 4A#X	.
4r	(>[2cc#^	4r	.
4r	.	8r	.
.	.	8e	.
=135	=135	=135	=135
4r	2cc#_	8d#XL	p
.	.	8e#X	.
4F# 4BB	.	8f#	.
.	.	8g#	.
4F#\ 4FF#\	8cc#L]	8a#X 8d#	.
.	8bJ	8bJ	.
=136	=136	=136	=136
4F# 4BB	12d#L	4d#X	.
.	12cc#	.	.
.	12bJ	.	.
4F# 4C#	8aL	4c#	.
.	8g#	.	.
4F#\ 4FF#\	8a	4c#	.
.	8f#J	.	.
!!linebreak:original
=137	=137	=137	=137
4F# 4BB	8d#L	>4d#X	.
.	8e#X	.	.
4F# 4BB	8f#	4d#	.
.	8g#	.	.
4F#\ 4FF#\	8a#X	4d#	.
.	8bJ	.	.
=138	=138	=138	=138
4F# 4BB	12d#L	4d#X	.
.	12cc#	.	.
.	12bJ	.	.
4F# 4BB	8a#XL	4c#	.
.	8g#J	.	.
4F#^\ 4FF#\	4a#)	4c#	.
=139	=139	=139	=139
4F# 4BB	(8d#L	>4d#X	.
.	8e#X	.	.
4F# 4BB	8f#	4d#	.
.	8g#	.	.
4F#\ 4FF#\	8a#X	4d#	.
.	8bJ	.	.
=140	=140	=140	=140
4F# 4BB	12d#L	4d#X	.
.	12cc#	.	.
.	12bJ	.	.
4F# 4C#	8a#XL	4c#	.
.	8g#	.	.
4F#\ 4FF#\	8a#	4c#	.
.	8f#J	.	.
=141	=141	=141	=141
4F# 4BB	8d#L	4d#X	.
.	8e#X	.	.
4F# 4BB	8f#	4d#	.
.	8g#	.	.
4F#\ 4FF#\	8a#X	4d#	.
.	8bJ	.	.
=142	=142	=142	=142
4F# 4BB	12d#L	4d#X	.
.	12cc#	.	.
.	12bJ	.	.
4F# 4BB	8a#XL	4d#	.
.	8g#	.	.
4F#\ 4FF#\	8a#	4c#	.
.	8f#J	.	.
!!linebreak:original
=143	=143	=143	=143
4F# 4BB	8a#XL	4d#X	.
.	8g#	.	.
!	!	!LO:TX:t=accell___	!
4F#\ 4FF#\	8a#	4c#	.
.	8f#	.	.
4F# 4BB	8a#	4d#	.
.	8g#J	.	.
=144	=144	=144	=144
4F#\ 4FF#\	8a#XL	4c#	.
.	8f#	.	.
4F# 4BB	8a#	4d#X	.
!	!LO:TX:t=dim___	!	!
.	8g#	.	.
4F#\ 4FF#\	8a#	4c#	.
.	8f#J	.	.
=145	=145	=145	=145
4F# 4BB	8a#XL	4d#X	.
.	8g#	.	.
4F#\ 4FF#\	8a#	4c#	.
.	8f#	.	.
4F# 4BB	8a#	4d#	.
.	8g#J	.	.
=146	=146	=146	=146
4F#\ 4FF#\	8a#XL	4c#	.
.	8f#	.	.
4F# 4BB	8a#	4d#X	.
.	8g#J	.	.
8F#\ 8FF#\	)8a# 8c#	4ryy	fz
8r	8r	.	.
*	*v	*v	*
=147	=147	=147
*^	*	*
4r	4CC#	8r	.
.	.	16r	.
!	!	!LO:TX:a:t=sostenuto	!
!	!	!LO:TX:a:t=a Tempo	!
.	.	(>16d#X	<
4r	4r	4.d#	.
(4B 4E#X	4C# 4CC#	.	.
.	.	8e#X	.
=148	=148	=148	=148
4A#X 4F#)	4C# 4FF#	8.e#XL	.
.	.	16f#Jk	.
4r	4ryy	4.f#	[
(4A# 4F#	4C# 4CC#	.	.
.	.	8e#	.
!!linebreak:original
=149	=149	=149	=149
4B 4E#X)	4C# 4GG#	>8d#XmL	.
.	.	8c#J	.
4r	4r	4.d#	.
(4B 4E#	4C# 4CC#	.	.
.	.	8e#X	.
=150	=150	=150	=150
4A#X 4F#)	4C# 4FF#	4f#	.
4r	4r	[2d#X^	.
(4A# 4F#	4C# 4FF#	.	.
=151	=151	=151	=151
4B 4E#X)	4C# 4CC#	8.d#L]	<
.	.	16d#XJk	.
4r	4r	4.d#	.
4B 4E#	4C# 4CC#	.	.
.	.	8e#X	[
=152	=152	=152	=152
4A#X 4E#X	4C##X 4CC##X	8.g#L	.
.	.	16f#Jk	.
4A# 4F#	4D#X 4DD#X	4.f#	.
4c#X 4F#	4AA#X 4AAA#X	.	.
.	.	8e#X	<
=153	=153	=153	=153
4G# 4F#	4BB 4BBB	8d#XmL	.
.	.	8c#J	.
4B 4F#	4GG# 4GGG#	4d#	.
4B 4E#X	4CC# 4CCC#	4e#X	[
=154	=154	=154	=154
4B 4E#X	4CC# 4CCC#	8.g#L	>
.	.	16f#Jk	.
4A#X 4F#	4FF# 4FFF#	4f#)	.
!	!	!LO:TX:a:t=Fine.	!
4r	4ryy	4r	]
*v	*v	*	*
==	==	==
*-	*-	*-
!!!RDF**kern: > = above
!!!RDF**kern: > = above
!!!RDF**kern: < = below
!!!EMC: Mateusz Mrugas
!!!EMD: 2018-06-06
!!!EED: Leszek Kubiak
!!!EST: 2018-06-11